X:1
T:The Lord is our defence and aid
T:The Lord is our defence and aid (Matthew Cooke)
C:Matthew Cooke
Z:p16, Twelve Psalm
Z:Tunes, London: [c1791]
%%score [ 1 2 3 4 ]
L:1/8
M:3/4
K:F
V:1 treble nm="Air" snm="S."
V:2 treble nm="[Alto]" snm="A."
V:3 treble-8 transpose=-12 nm="Tenor" snm="T."
V:4 bass nm="[Bass]" snm="B."
V:1
 c2 | A3 c BA | (d2 c2) f2 | (f2 e2) e2 | f3 B cA | (A2 G2) c2 | A3 c dc | B2 A4 | d4 f2 | %9
w: In|midst of her the|Lord _ doth|dwell, _ She|ne- ver can de-|cay; _ All|things a- gainst her|that re-|bel The|
w: The|Lord is our de-|fence _ and|aid, _ The|strength where- by we|stand; _ When|we with woe are|much dis-|may’d He|
w: No,|though the sea doth|rage _ so|sore _ That|all the banks it|spills, _ And|though it o- ver-|flows the|shore, And|
 f>e d2 =B2 | c6 | z6 | z2 z c _ee | (_e2 d4) | z6 | z2 z c ff | (f2 e2) e2 | fe d3 e | %18
w: Lord will sure- ly|slay.||and king- doms|fear, _||and king- doms|fear, _ The|peo- ple make a|
w: is our help at|hand.||we will not|fear, _||we will not|fear, _ Though|moun- tains high and|
w: beat down migh- ty|hills;||doth send a-|broad, _||doth send a-|broad _ His|plea- sant streams a-|
 (d2 ^c2) z2 | z6 | z6 | z2 z2 z c | Ac AF GA | B2 f3 g | e3 c A2- | Ad A2 G2 | F4 |] %27
w: noise, _|||The|earth doth melt and dis- ap-|pear, dis- ap-|pear, When God|_ puts forth his|voice.|
w: steep _|||Be|thrust and hur- led here and|there, here and|there, With- in|_ the sea so|deep.|
w: pace _|||To|glad the ci- ty of our|God, of our|God, And wash|_ his ho- ly|place.|
V:2
 E2 | F3 F EF | F4 F2 | (A2 G2) G2 | (FG A)E FF | (F2 E2) E2 | F3 E FA | G2 F4 | F4 F2 | %9
w: In|midst of her the|Lord doth|dwell, _ She|ne- * * ver can de-|cay; _ All|things a- gainst her|that re-|bel The|
w: The|Lord is our de-|fence and|aid, _ The|strength _ _ where- by we|stand; _ When|we with woe are|much dis-|may’d He|
w: No,|though the sea doth|rage so|sore _ That|all _ _ the banks it|spills, _ And|though it o- ver-|flows the|shore, And|
 F>G F2 (DG) | (F2 E4) | C3 D E2 | F3 F CF | F6 | D3 E (FD) | G3 G GD | G4 A2 | AA F2 G2 | %18
w: Lord will sure- ly _|slay. _|The hea- then|folk and king- doms|fear,|the hea- then _|folk and king- doms|fear, The|peo- ple make a|
w: is our help at _|hand. _|Though the earth|move, we will not|fear,|though the earth _|move, we will not|fear, Though|moun- tains high and|
w: beat down migh- ty _|hills; _|For one fair|flood doth send a-|broad,|for one fair _|flood doth send a-|broad His|plea- sant streams a-|
 (F2 E2) z2 | z6 | z4 z G | EG EC DE | FA, CA, B,C | D2 D2 D2 | C3 G F2- | FF F2 (EC) | C4 |] %27
w: noise, _||The|earth doth melt and dis- ap-|pear, doth melt and dis- ap-|pear, dis- ap-|pear, When God|_ puts forth his _|voice.|
w: steep _||Be|thrust and hur- led here and|there, be hur- led here and|there, here and|there, With- in|_ the sea so _|deep.|
w: pace _||To|glad the ci- ty of our|God, the ci- ty of our|God, of our|God, And wash|_ his ho- ly _|place.|
V:3
 G2 | c3 c cc | (B2 A2) c2 | c4 c2 | (cB A)c Fc | c4 G2 | A3 F Fc | c2 c4 | B4 c2 | =B>G A2 G2 | %10
w: In|midst of her the|Lord _ doth|dwell, She|ne- * * ver can de-|cay; All|things a- gainst her|that re-|bel The|Lord will sure- ly|
w: The|Lord is our de-|fence _ and|aid, The|strength _ _ where- by we|stand; When|we with woe are|much dis-|may’d He|is our help at|
w: No,|though the sea doth|rage _ so|sore That|all _ _ the banks it|spills, And|though it o- ver-|flows the|shore, And|beat down migh- ty|
 G6 | E3 F G2 | c3 c FA | B6 | =B3 c (dB) | c3 c =BB | c4 A2 | dA A2 G2 | A4 z2 | z4 z d | %20
w: slay.|The hea- then|folk and king- doms|fear,|the hea- then _|folk and king- doms|fear, The|peo- ple make a|noise,|The|
w: hand.|Though the earth|move, we will not|fear,|though the earth _|move, we will not|fear, Though|moun- tains high and|steep|Be|
w: hills;|For one fair|flood doth send a-|broad,|for one fair _|flood doth send a-|broad His|plea- sant streams a-|pace|To|
 =Bd BG AB | c2 G3 c | F2 FF FF | Fd BB dG | G3 G c2 | F2 (cA) B2 | A4 |] %27
w: earth doth melt and dis- ap-|pear, dis- ap-|pear, melt and dis- ap-|pear, doth melt and dis- ap-|pear, When God|puts forth _ his|voice.|
w: thrust and hur- led here and|there, here and|there, hur- led here and|there, be hur- led here and|there, With- in|the sea _ so|deep.|
w: glad the ci- ty of our|God, of our|God, ci- ty of our|God, the ci- ty of our|God, And wash|his ho- * ly|place.|
V:4
 C,2 | F,3 A, G,F, | (B,,2 F,G,) (A,B,) | C4 B,2 | (A,G, F,)G, A,F, | C,4 E,2 | F,3 A, B,F, | %7
w: In|midst of her the|Lord _ _ doth _|dwell, She|ne- * * ver can de-|cay; All|things a- gainst her|
w: The|Lord is our de-|fence _ _ and _|aid, The|strength _ _ where- by we|stand; When|we with woe are|
w: No,|though the sea doth|rage _ _ so _|sore That|all _ _ the banks it|spills, And|though it o- ver-|
 E,2 F,4 | B,,4 A,,2 | G,,>C, F,2 G,2 | C,6 | C,3 C, B,,2 | A,,3 F, A,F, | B,,6 | G,3 G, F,2 | %15
w: that re-|bel The|Lord will sure- ly|slay.|The hea- then|folk and king- doms|fear,|the hea- then|
w: much dis-|may’d He|is our help at|hand.|Though the earth|move, we will not|fear,|though the earth|
w: flows the|shore, And|beat down migh- ty|hills;|For one fair|flood doth send a-|broad,|for one fair|
 E,3 E, D,G, | C,4 ^C,2 | D,C, B,,2 B,,2 | A,,4 z A, | ^F,A, F,D, E,F, | G,2 D,3 G, | C,2 z2 z2 | %22
w: folk and king- doms|fear, The|peo- ple make a|noise, The|earth doth melt and dis- ap-|pear, dis- ap-|pear,|
w: move, we will not|fear, Though|moun- tains high and|steep Be|thrust and hur- led here and|there, here and|there,|
w: flood doth send a-|broad His|plea- sant streams a-|pace To|glad the ci- ty of our|God, of our|God,|
 z2 z2 z _E, | %23
w: the|
w: be|
w: to|
"^Notes:The first pair of verses (8 lines) of the text is underlaid in the source, with the other verses given here printed afterthe music: these have been underlaid editorially.Original clefs treble, alto, tenor, bass.The alto notes in bar 10, given here as a crotchet F followed by a minim E, are printed in the source as a small quavergrace note F followed by a full-sized dotted minim E." D,F, D,B,, G,,B,, | %24
w: earth doth melt and dis- ap-|
w: thrust and hur- led here and|
w: glad the ci- ty of our|
 C,3 E, F,2 | (D,B,,) C,2 C,2 | F,4 |] %27
w: pear, When God|puts _ forth his|voice.|
w: there, With- in|the _ sea so|deep.|
w: God, And wash|his _ ho- ly|place.|

